svg/color/asd.svg

<svg viewBox="0 0 258 175" fill="none" xmlns="http://www.w3.org/2000/svg">
<g clip-path="url(#clip0_1494_170014)">
<path d="M247.29 2.2644C240.845 -0.348797 233.551 1.08425 228.633 5.97345L164.605 69.6175V104.179L233.212 36.0674V149.615H119.235L106.09 128.457L60.2109 174.061H240.76C250.173 174.061 257.805 166.474 257.805 157.118V18.0279C257.805 11.1156 253.65 4.96189 247.29 2.2644Z" fill="#2C2236"/>
<path d="M59.448 149.615L135.009 74.5066V144.642H159.602V56.3828C159.602 49.4705 155.447 43.3168 149.086 40.7036C142.641 38.0904 135.348 39.5235 130.429 44.4127L0 174.061H53.0028L77.5961 149.615H59.448Z" fill="#2C2236"/>
</g>
<defs>
<clipPath id="clip0_1494_170014">
<rect width="258" height="175" fill="white"/>
</clipPath>
</defs>
</svg>

<svg xmlns="http://www.w3.org/2000/svg" fill="none" viewBox="0 0 258 175"><g fill="#2C2236" clip-path="url(#asd_svg-a)"><path d="M247.29 2.264c-6.445-2.613-13.739-1.18-18.657 3.71l-64.028 63.644v34.561l68.607-68.112v113.548H119.235l-13.145-21.158-45.88 45.604h180.55c9.413 0 17.045-7.587 17.045-16.943V18.028c0-6.912-4.155-13.066-10.515-15.764"/><path d="m59.448 149.615 75.561-75.108v70.135h24.593v-88.26a16.91 16.91 0 0 0-10.516-15.678c-6.445-2.614-13.738-1.18-18.657 3.709L0 174.06h53.003l24.593-24.446z"/></g><defs><clipPath id="asd_svg-a"><path fill="#fff" d="M0 0h258v175H0z"/></clipPath></defs></svg>
